!!!COM: Bach, Johann Sebastian
!!!OPR: Joh. Seb. Bachs vierstimmige Choralges‰nge
!!!XEN: Four-part Chorales
!!!OTL: 52. Erbarm' dich mein, o Herre Gott
!!!SCT: BWV 305
!!!SCA: Thematisch-systematisches Verzeichnis der musikalischen Werke Johann Sebastian Bach: Bach-Werke-Verzeichnis (Schmieder)
!!!YOR: Bach Gesellschaft Edition xxxix
!!!ENC: Steven Rasmussen
!!!CDT: 1685/3//-1750/7/28/
!!!OCY: Deutschland
!!!YEC: Copyright (c) 1994, 2000 Center for Computer Assisted Research in the Humanities
!!!YEM: Rights to all derivative editions reserved
!!!YEN: United States of America
**kern	**silbe	**kern	**kern	**kern
*I:[SOPRANO]	*I:[SOPRANO]	*I:[ALTO]	*I:[TENORE]	*I:[BASSO]
*>[A,A,B]	*	*>[A,A,B]	*>[A,A,B]	*>[A,A,B]
*>A	*	*>A	*>A	*>A
*clefG2	*	*clefG2	*clefGv2	*clefF4
*k[]	*	*k[]	*k[]	*k[]
*C:	*	*C:	*C:	*C:
*M4/4	*	*M4/4	*M4/4	*M4/4
4e	Er-wasch'	4B	4G	4E
=1	=1	=1	=1	=1
4g	-barm'ab,	4e	4B	8EL
.	.	.	.	8FJ
4g	dichmach'	4e	4B	8EL
.	.	.	.	8DJ
4a	mein,rein	4e	4c	(8C
.	.	.	.	4A)
4b	omein'	8fL	4d	.
.	.	8eJ	.	8G#
=2	=2	=2	=2	=2
4cc	Her-Mis-	(8e	8cL	8AL
.	.	4a)	8eJ	8CJ
4b	-re-se-	.	8fL	8DL
.	.	8g#	16eL	8EJ
.	.	.	16dJJ	.
4a;	Gott,-tat,	4e;	4c;	4AA;
4g	nachich	8eL	4B	8EL
.	.	8fJ	.	8DJ
=3	=3	=3	=3	=3
4cc	dei-kenn'	8gL	4e	4C
.	.	8aJ	.	.
4b	-nermein'	8aL	8fL	8DL
.	.	16gL	16eL	8GJ
.	.	16fJJ	16dJJ	.
4cc	gross'nS√ºnd'	4.g	4c	8EL
.	.	.	.	8CJ
4a	Barm-und	.	4c	4F
.	.	8f	.	.
=4	=4	=4	=4	=4
4g	-her-ist	8fL	8.cL	4C
.	.	8eJ	.	.
.	.	.	16B-Jk	.
4f	-zig-mir	8eL	8AL	4D
.	.	16dL	16BnL	.
.	.	16cJJ	16AJJ	.
4e;	-keit,leid.	4B;	4G#;	4E;
=:|!	=:|!	=:|!	=:|!	=:|!
*>B	*	*>B	*>B	*>B
4e	Al-	4c	4A	8AL
.	.	.	.	8GJ
=5	=5	=5	=5	=5
4a	-lein	4f	4c	8FL
.	.	.	.	8EJ
4a	ich	4f	4d	8DL
.	.	.	.	8CJ
4g	dir	8fL	8dL	8BBL
.	.	16eL	8cJ	8CJ
.	.	16dJJ	.	.
4cc	ge-	8eL	8GL	8BBL
.	.	8f#J	8AJ	8AAJ
=6	=6	=6	=6	=6
4b	-s√ºn-	(16gLL	8DL	8GGL
.	.	16dJJ	.	.
.	.	4g)	8dJ	8BBJ
4a	-digt	.	8eL	8CL
.	.	8f#	16dL	8DJ
.	.	.	16cJJ	.
4g;	hab,	4d;	4B;	4GG;
4g	das	4e	4c	8CL
.	.	.	.	8BBJ
=7	=7	=7	=7	=7
4cc	ist	4e	4c	8AAL
.	.	.	.	8BBJ
4g	wi-	8eL	8cL	8CL
.	.	8dJ	8B-J	8EEJ
4a	-der	8cL	4A	8FFL
.	.	8BJ	.	8GGJ
4e	mich	8c#L	4A	8AAL
.	.	8dJ	.	8BBJ
=8	=8	=8	=8	=8
8aL	ste-	4.e	4A	8C#L
8gJ	.	.	.	8AAJ
4f	-tig-	.	4A	4D
.	.	8d	.	.
4e;	-lich;	(8dL	4A;	4AA;
.	.	8c#;J)	.	.
4e	das	4cn	4A	8AL
.	.	.	.	8GJ
=9	=9	=9	=9	=9
4a	B√∂s'	(8c	(8A	4F
.	.	4e-)	4c)	.
4a	vor	.	.	4F#
.	.	8d	16BLL	.
.	.	.	16AJJ	.
8gL	dir	4d	4B	4G
8fJ	.	.	.	.
4e	nicht	4c	8cL	8AL
.	.	.	8BJ	8GJ
=10	=10	=10	=10	=10
4f	mag	4c	4A	8FL
.	.	.	.	8DJ
4d	be-	8cL	8.GL	8GL
.	.	8BJ	.	8GGJ
.	.	.	16FJk	.
4c;	-stah'n,	4G;	4E;	4C;
4c	du	4G	4E	4C
=11	=11	=11	=11	=11
2g	bleibst	4d	4G	4BB
.	.	8eL	8cL	8CL
.	.	8dJ	8dJ	8BBJ
4a	.	4c	8eL	4AA
.	.	.	8fJ	.
4b	ge-	4d	4g	8GGL
.	.	.	.	8FFJ
=12	=12	=12	=12	=12
4cc	-recht,	8eL	4G	8EEL
.	.	8fJ	.	8DDJ
4g	ob	8gL	4c	8EEL
.	.	8eJ	.	8CCJ
4a	man	4f	4c	8FFL
.	.	.	.	8AAJ
4g	ur-	8fL	8.cL	4C
.	.	8eJ	.	.
.	.	.	16B-Jk	.
=13	=13	=13	=13	=13
4.f	-tei-	8eL	8AL	4.D
.	.	8dJ	16BL	.
.	.	.	16cJJ	.
.	.	8dL	8BL	.
8f	-le	8cJ	8AJ	8D
4e;	dich.	4B;	4G#;	4E;
==|!	==|!	==|!	==|!	==|!
*-	*-	*-	*-	*-
!!!RWG: Key is interpreted using the Humdrum key tool.
!!!END: 1994/05/25
!!!EMD: Converted from MuseData to Humdrum Dec 19, 2000, by Andreas Kornstaedt using muse2kern.
!!!EED: Craig Stuart Sapp
!!!EEV: 2024/03/31
!!!ONB: Some non-unicode characters
